src/images/icons/icon-dish.svg

<svg width="52" height="52" viewBox="0 0 52 52" fill="none" xmlns="http://www.w3.org/2000/svg">
<path fill-rule="evenodd" clip-rule="evenodd" d="M52 22.8506C52 22.0093 51.3179 21.3272 50.4766 21.3272H45.8483C45.1062 11.6191 37.3333 3.84672 27.625 3.10606V1.52338C27.625 0.682066 26.9429 0 26.1016 0C25.2602 0 24.5781 0.682066 24.5781 1.52338V3.10017C17.6876 3.56338 13.404 7.11467 10.9794 10.1275C8.4304 13.295 6.73441 17.4641 6.37091 21.3272H1.52344C0.682094 21.3272 0 22.0093 0 22.8506C0 24.8863 0.837078 26.8075 2.35706 28.2605C3.84587 29.6838 5.78612 30.4675 7.82031 30.4675H15.4727C14.1279 31.1617 12.642 31.9848 11.0004 32.9424C8.4907 34.4064 7.6277 36.4754 6.62847 38.8709L6.62838 38.8711L6.62817 38.8716C5.94867 40.5008 5.17852 42.3473 3.71526 44.542C2.95263 45.6859 3.89086 46.6959 4.76054 47.5162C5.87316 48.5656 7.78152 50.106 8.98716 51.0207C9.01823 51.0442 9.04888 51.0676 9.07913 51.0906C9.10336 51.1091 9.12734 51.1274 9.15109 51.1455L9.15486 51.1484L9.15519 51.1487C9.80097 51.6416 10.2705 52 10.8679 52C11.3171 52 11.6995 51.7966 11.9444 51.5515C13.7263 49.7699 16.0148 48.748 18.223 48.748H24.5542C27.5734 48.748 30.4631 47.4607 32.4771 45.2219L44.6392 31.8393C44.9946 31.4482 45.1081 30.9208 44.9872 30.4413C48.9055 30.132 52 26.8469 52 22.8506ZM26.1044 6.09502C34.8295 6.09502 42.0171 12.7995 42.7894 21.3272H9.42967C10.153 14.6895 15.5034 6.09502 26.1044 6.09502ZM34.6111 30.4675H27.5578C27.6745 30.8833 27.6936 31.2641 27.6679 31.5846C27.514 33.5197 25.6721 35.0714 23.2892 36.561H28.5173L34.6111 30.4675ZM32.4722 40.6971L30.2171 43.1785C28.7748 44.7817 26.7107 45.7013 24.5542 45.7013H18.223C15.6042 45.7013 12.9372 46.7209 10.7414 48.5325C9.62284 47.6777 7.78375 46.1801 6.84623 45.3012C8.0992 43.2598 8.83431 41.4972 9.44044 40.0439C10.3562 37.8482 10.909 36.5229 12.5357 35.5741C15.3659 33.9232 17.6575 32.7188 19.5413 31.8922C22.969 30.3882 23.9785 30.6263 24.096 30.6643C24.4777 30.9744 24.6398 31.2278 24.6306 31.3431C24.6261 31.4001 24.5451 31.931 23.1172 33.002C21.9883 33.8488 20.4427 34.7244 18.8886 35.6048L18.8886 35.6049C18.2008 35.9945 17.5113 36.3851 16.8555 36.7746C16.2656 37.1249 15.9828 37.8262 16.1645 38.4877C16.3462 39.1492 16.9475 39.6077 17.6335 39.6077H29.1483C29.5524 39.6077 29.9398 39.4471 30.2255 39.1614L37.4953 31.8919C38.8804 30.5068 40.0271 30.2013 41.3071 30.9753L32.4722 40.6971ZM7.82031 27.4208H44.3828C46.369 27.4208 48.0633 26.127 48.692 24.3537H3.33064C4.00258 26.1088 5.78744 27.4208 7.82031 27.4208Z" fill="#5DC4B8"/>
</svg>

<svg width="52" height="52" fill="none" xmlns="http://www.w3.org/2000/svg"><path fill-rule="evenodd" clip-rule="evenodd" d="M52 22.85c0-.84-.682-1.523-1.523-1.523h-4.629c-.742-9.708-8.515-17.48-18.223-18.22V1.522a1.523 1.523 0 00-3.047 0V3.1c-6.89.463-11.174 4.015-13.599 7.027-2.549 3.168-4.245 7.337-4.608 11.2H1.523c-.84 0-1.523.682-1.523 1.524 0 2.035.837 3.957 2.357 5.41a7.88 7.88 0 005.463 2.207h7.653c-1.345.694-2.831 1.517-4.473 2.474-2.51 1.464-3.372 3.533-4.372 5.929-.68 1.63-1.45 3.476-2.913 5.671-.762 1.144.176 2.154 1.046 2.974 1.112 1.05 3.02 2.59 4.226 3.505l.092.07.072.054.004.003c.646.494 1.116.852 1.713.852.45 0 .832-.203 1.076-.449 1.782-1.781 4.07-2.803 6.279-2.803h6.331c3.02 0 5.91-1.287 7.923-3.526L44.64 31.839c.356-.39.47-.918.348-1.398 3.919-.309 7.013-3.594 7.013-7.59zM26.104 6.096c8.726 0 15.913 6.705 16.685 15.232H9.43c.724-6.638 6.074-15.232 16.675-15.232zm8.507 24.373h-7.053c.116.415.136.796.11 1.117-.154 1.935-1.996 3.486-4.379 4.976h5.228l6.094-6.093zm-2.139 10.23l-2.255 2.48a7.628 7.628 0 01-5.663 2.523h-6.331c-2.619 0-5.286 1.02-7.482 2.831-1.118-.854-2.957-2.352-3.895-3.23C8.1 43.26 8.834 41.496 9.44 40.043c.916-2.196 1.469-3.521 3.096-4.47 2.83-1.65 5.121-2.855 7.005-3.682 3.428-1.504 4.438-1.266 4.555-1.228.382.31.544.564.535.68-.005.056-.086.587-1.514 1.658-1.129.847-2.674 1.722-4.228 2.603-.688.39-1.378.78-2.034 1.17a1.523 1.523 0 00.779 2.833h11.514c.404 0 .792-.16 1.078-.447l7.27-7.27c1.384-1.384 2.531-1.69 3.811-.916l-8.835 9.722zM7.82 27.42h36.563c1.986 0 3.68-1.294 4.309-3.067H3.331c.672 1.755 2.456 3.067 4.49 3.067z" fill="#5DC4B8"/></svg>
